brandFactory_export/2.Regular/Mano abajo_2Regular.svg

<?xml version="1.0" encoding="UTF-8"?>
<svg width="24px" height="24px" viewBox="0 0 24 24" version="1.1" xmlns="http://www.w3.org/2000/svg" xmlns:xlink="http://www.w3.org/1999/xlink">
    <title>2.Regular/Mano abajo_2Regular</title>
    <g id="Symbols" stroke="none" stroke-width="1" fill="none" fill-rule="evenodd">
        <g id="2.Regular/Mano-abajo_2Regular" fill="#5CB615" fill-rule="nonzero">
            <path d="M15.1697479,0 L5.82521008,0 C4.64537815,0 3.63697479,0.369747899 2.98823529,1.03865546 C2.34285714,1.70420168 2.01680672,2.63529412 2.01680672,3.80168067 L2.01680672,12.194958 C2.01680672,13.7210084 2.95462185,14.6722689 4.4605042,14.6722689 C4.8,14.6722689 5.1092437,14.6252101 5.38823529,14.5310924 C5.67394958,15.5596639 6.51764706,16.1714286 7.72773109,16.1714286 C8.06722689,16.1714286 8.38319328,16.1243697 8.65882353,16.0302521 C8.94789916,17.0487395 9.78823529,17.6537815 10.9915966,17.6537815 C11.287395,17.6537815 11.5630252,17.6168067 11.8117647,17.5462185 L11.8117647,21.0285714 C11.8117647,22.6285714 12.7932773,23.6235294 14.3731092,23.6235294 C15.892437,23.6235294 16.8235294,22.6957983 16.9277311,21.0823529 C16.9310924,21.0655462 16.9310924,21.0487395 16.9310924,21.0285714 C16.9310924,20.7193277 16.9344538,14.8403361 16.9310924,12.1680672 C17.3378151,12.8605042 17.7008403,13.3445378 18.1411765,13.6941176 C18.5714286,14.0369748 19.0857143,14.2117647 19.5932773,14.2117647 C20.0773109,14.2117647 20.5546218,14.0537815 20.9512605,13.7378151 C21.7310924,13.112605 21.9193277,12.0470588 21.4420168,11.0218487 C20.6252101,9.28403361 19.2504202,6.4907563 18.1445378,4.24537815 C17.4554622,2.84705882 16.8605042,1.63697479 16.692437,1.27394958 C16.5210084,0.890756303 16.107563,0 15.1697479,0 M15.1294118,1.4789916 C15.2201681,1.57310924 15.3310924,1.81176471 15.3680672,1.89915966 C15.5462185,2.28571429 16.1445378,3.49915966 16.8336134,4.90420168 C17.9361345,7.14285714 19.307563,9.92941176 20.1176471,11.6571429 C20.205042,11.8453782 20.3764706,12.312605 20.0403361,12.5815126 C19.8823529,12.7092437 19.7109244,12.7361345 19.5966387,12.7361345 C19.4084034,12.7361345 19.2134454,12.6655462 19.0554622,12.5378151 C18.7932773,12.3294118 18.5344538,11.9932773 18.194958,11.4151261 C17.9260504,10.9579832 17.4420168,10.692437 16.9378151,10.692437 C16.810084,10.692437 16.6789916,10.7092437 16.5478992,10.7462185 C15.912605,10.9210084 15.4722689,11.5058824 15.4722689,12.1714286 L15.4722689,20.3428571 L15.4756303,20.9882353 C15.4117647,21.9529412 15.0117647,22.1478992 14.3831933,22.1478992 C13.6134454,22.1478992 13.287395,21.8151261 13.287395,21.0319328 L13.287395,17.5462185 C13.287395,17.0823529 13.0722689,16.6487395 12.7092437,16.3697479 C12.4504202,16.1714286 12.1411765,16.0672269 11.8218487,16.0672269 C11.6907563,16.0672269 11.5563025,16.0840336 11.4285714,16.1210084 C11.3042017,16.1546218 11.1630252,16.1747899 11.0016807,16.1747899 C10.2319328,16.1747899 10.1243697,15.7882353 10.0773109,15.6201681 C9.96638655,15.2336134 9.70756303,14.907563 9.35462185,14.7193277 C9.14285714,14.605042 8.90756303,14.5478992 8.67226891,14.5478992 C8.51764706,14.5478992 8.36302521,14.5714286 8.21176471,14.6218487 C8.07731092,14.6655462 7.91932773,14.6890756 7.74117647,14.6890756 C6.96806723,14.6890756 6.8605042,14.2957983 6.81344538,14.1277311 C6.70588235,13.7378151 6.44369748,13.4117647 6.0907563,13.2201681 C5.87563025,13.1058824 5.64033613,13.0453782 5.40168067,13.0453782 C5.24705882,13.0453782 5.09243697,13.0689076 4.94453782,13.1193277 C4.81008403,13.1630252 4.65210084,13.1865546 4.47394958,13.1865546 C3.77815126,13.1865546 3.49579832,12.897479 3.49579832,12.1882353 L3.49579832,3.79495798 C3.49579832,3.01848739 3.67731092,2.45378151 4.05042017,2.06722689 C4.41680672,1.6907563 5.06554622,1.47226891 5.83865546,1.47226891 L15.1294118,1.47226891" id="Mano-abajo_2Regular"></path>
        </g>
    </g>
</svg>

<svg width="24" height="24" viewBox="0 0 24 24" xmlns="http://www.w3.org/2000/svg"><path d="M15.17 0H5.825c-1.18 0-2.188.37-2.837 1.039-.645.665-.971 1.596-.971 2.763v8.393c0 1.526.938 2.477 2.444 2.477.339 0 .648-.047.927-.14.286 1.028 1.13 1.64 2.34 1.64.34 0 .655-.048.93-.142.29 1.019 1.13 1.624 2.334 1.624.295 0 .571-.037.82-.108v3.483c0 1.6.981 2.595 2.561 2.595 1.52 0 2.45-.928 2.555-2.542.003-.016.003-.033.003-.053 0-.31.003-6.189 0-8.86.407.692.77 1.176 1.21 1.525.43.343.945.518 1.452.518a2.17 2.17 0 001.358-.474c.78-.625.968-1.69.491-2.716-.817-1.738-2.192-4.531-3.297-6.777a250.638 250.638 0 01-1.453-2.971C16.521.89 16.108 0 15.17 0m-.04 1.479c.09.094.201.333.238.42.178.387.777 1.6 1.466 3.005 1.102 2.239 2.474 5.025 3.284 6.753.087.188.258.656-.078.925a.701.701 0 01-.443.154.874.874 0 01-.542-.198c-.262-.209-.52-.545-.86-1.123a1.46 1.46 0 00-1.647-.669 1.474 1.474 0 00-1.076 1.425v8.172l.004.645c-.064.965-.464 1.16-1.093 1.16-.77 0-1.096-.333-1.096-1.116v-3.486c0-.464-.215-.897-.578-1.176a1.453 1.453 0 00-1.28-.249 1.627 1.627 0 01-.427.054c-.77 0-.878-.387-.925-.555a1.48 1.48 0 00-.722-.9 1.437 1.437 0 00-1.143-.098 1.528 1.528 0 01-.47.067c-.774 0-.881-.393-.929-.561a1.467 1.467 0 00-1.412-1.082c-.154 0-.309.023-.456.073a1.528 1.528 0 01-.471.068c-.696 0-.978-.29-.978-.999V3.795c0-.777.181-1.341.554-1.728.367-.376 1.016-.595 1.789-.595h9.29" fill="#5CB615" fill-rule="nonzero"/></svg>
